X:6216
T:Ghillie Callum
M:C|
L:1/8
K:AMix
A<Ac>A d2B<G|A<Ac>A e2 c<A|   e2c<A  d2 B<G|A<Ac>A d<Be2:|
A<Ac>A g2B<G|A<Ac>e a>ba>f|[1 g>ag>e d<gB<G|A<Ac>A d<Be2:|
                           [2 ge d<Be2|]
